X:1
T: Athole Brose
T: Buckingham House
C:Mackintosh Junior
R:Reel
Q: 232
K:Dm
M:4/4
L:1/8
|:A|FD D1/2D1/2D A,D DE|FD D1/2D1/2D G1/2A1/2B AG|FD D1/2D1/2D A,D DF|E1/2F1/2G CG cG EG|
FD D1/2D1/2D A,D DE|FD D1/2D1/2D G1/2A1/2B AG|FD D1/2D1/2D A,D DF|E1/2F1/2G CE cG EC|
Dd d3/2c1/2 de dc|Ad de fd e^c|dd fd ec fd|c3/2d1/2 cG EC GE|
Dd d3/2c1/2 de dc|Ad de fd e^c|dd fd ec fd|c3/2d1/2 cG EC GE:|
